X: 782
T: Airlie's Big Day
R: reel
M: 4/4
K: Dmajor
fdAf dAfA|BddA Bdeg|fdAf dAfA|Bdef g2a2|
fdAf dAfA|BddA Bdeg|afAa gecd|eAce d4||
a4 adfa|gecd eAce|fadf adfd|fAcd e2g2|
a4 adfa|gecd eAce|afAa gecd|eAce d4||

